X:1
T:We Saw Thee Not, LMD
T:We Saw Thee Not, LMD
T:Knowles Shaw, 1877
T:Public Domain Courtesy of the Cyber Hymnal™
C:Knowles Shaw, 1877
Z:Public Domain
Z:Courtesy of the Cyber Hymnal™
%%score ( 1 2 ) 3
L:1/8
Q:1/4=95
M:3/4
K:E
V:1 treble 
V:2 treble 
V:3 bass 
V:1
 EE [EG] | [EB]3 [EG] [EG][DF] | E3 E [DF][DF] | [DF]3 [FA] [EG][DF] | [EG]3 E E[EG] | %5
 [EB]3 [EG] [EG][DF] | E3 E [DF][DF] | [DF]3 [FA] [EG][DF] | E3 | [GB][Ac]>[Ac] | %10
 [ce]3 [Ac] [Ac][GB] | [GB]3 [EG] [DF][Ac] | [GB]3 [EG] [DF][Ac] | [GB]3 [GB] [Ge]>[Bd] | %14
 [Ac]3 [GB] [Ac][Ae] | [GB]3 [EG] [DF][Ac] | [GB]3 [EG] [EG][DF] | E3 |] %18
V:2
 EE x | x6 | E3 E x2 | x6 | x3 E E x | x6 | E3 E x2 | x6 | E3 | x3 | x6 | x6 | x6 | x6 | x6 | x6 | %16
 x6 | E3 |] %18
V:3
 [E,G,][E,G,] [E,B,] | [E,G,]3 [E,B,] [B,,B,][B,,A,] | [E,G,]3 [E,G,] [B,,B,][B,,B,] | %3
 [B,,B,]3 [B,,B,] [B,,B,][B,,B,] | [E,B,]3 [E,G,] [E,G,][E,B,] | [E,G,]3 [E,B,] [B,,B,][B,,A,] | %6
 [E,G,]3 [E,G,] [B,,B,][B,,B,] | [B,,B,]3 [B,,B,] [B,,B,][B,,A,] | [E,G,]3 | [E,E][E,E]>[G,E] | %10
 [A,E]3 [A,E] [E,E][E,E] | [E,E]3 [E,B,] [B,,B,][D,B,] | [E,B,]3 [E,B,] [B,,B,][D,B,] | %13
 [E,B,]3 [E,E] [E,E]>[G,E] | [A,E]3 [E,E] [A,E][A,C] | [E,E]3 [E,B,] [B,,B,][D,B,] | %16
 [E,B,]3 [E,B,] [B,,B,][B,,A,] | [E,G,]3 |] %18

